icons/folder-open.svg

<svg xmlns="http://www.w3.org/2000/svg" width="24" height="24" fill="none" viewBox="0 0 24 24">
  <path stroke="currentColor" stroke-linejoin="round" stroke-width="2" d="M17 8V7C17 6.44772 16.5523 6 16 6H10.4142C10.149 6 9.89464 5.89464 9.70711 5.70711L8.29289 4.29289C8.10536 4.10536 7.851 4 7.58579 4H4C3.44772 4 3 4.44772 3 5V17C3 18.1046 3.89543 19 5 19H19C19.5523 19 20 18.5523 20 18V11C20 10.4477 19.5523 10 19 10H8C7.44772 10 7 10.4477 7 11V17C7 18.1046 6.10457 19 5 19V19" />
</svg>

<svg xmlns="http://www.w3.org/2000/svg" width="24" height="24" fill="none" viewBox="0 0 24 24">
  <path stroke="currentColor" stroke-linecap="round" stroke-linejoin="round" stroke-width="2" d="M17 6h-6.586a1 1 0 0 1-.707-.293L8.293 4.293A1 1 0 0 0 7.586 4H4a1 1 0 0 0-1 1v12a2 2 0 0 0 2 2m0 0h14a1 1 0 0 0 1-1v-7a1 1 0 0 0-1-1H8a1 1 0 0 0-1 1v6a2 2 0 0 1-2 2Z"/>
</svg>
